X: 4063
T: MISS HOPE
R: Reel.
%R: reel
B: James Kerr "Merry Melodies" v.4 p.09 #63
Z: 2016 John Chambers <jc:trillian.mit.edu>
M: C
L: 1/8
K: D
|:\
DFAB AGFE | d2(fd) eEEF |\
DFAB AGFD | GBAF D/D/D D2 ::\
dcde dfed |
cdef gfec |\
[1 dcde dfed | cAec d/d/d d2 :|\
[2 dBAF GdAF | GBAF D/D/D D2 |]

%%sep 1 1 500
%%sep 1 1 500

